X: 597
T: Gladstone's Reel
C:J. Scott Skinner
B: jims roots
M:2/4
L:1/8
R: Structure A A B C C D
Q: 1/4=100
K:A
V:1 
g | "F#m"afba "E"geag | "D"fdgf "A"ecfe | "D"dBed "A"cAdc | "E"BAGA Befg |
    "F#m"afba "E"geag | "D"fdgf "A"ecfe | "D"dBed "A"ceaf | "E"ecdB "A"(A2 A) ||
d | "A"cAdB efga | (3aaa cA "E"BGEd | "A"cAdB "(D)"efga | "E"ecdB "A"A2 :|
g | "F#m"(3aaa  fa "E"(3ggg eg | "D"(3fff df "A"(3eee ce | "D"(3ddd  Bd "A"(3ccc  Ac | "E"BAGA Befg |
    "F#m"afba "E"gbeg | "D"fdaf "A"eace | "D"dBed "A"ceAa | "E"ecdB "A"(A2 A) ||
V:P:A Part
d | "A"cAdB efga | (3AAA cA "E"BGEd | "A"cAdB "(D)"efga | "E"ecdB "A"A2 :|
% abcbook-tune_id 6298c25d23b2f7276b492588


% abcbook-boost 0
% abcbook-tablature 
% abcbook-transpose 
% abcbook-lastupdated 1654178398237
% abcbook-soundfonts 
% abcbook-repeats 1


